;PYCAM-META-DATA: Filename: /home/crepp052/Bureau/files_stl_cnc/cercle_10x10.stl
;PYCAM-META-DATA: Timestamp: 2015-04-07 22:09:28.896917
;PYCAM-META-DATA: Version: 0.5.1
;Estimated machine time: 223 minutes
G40 (disable tool radius compensation)
G49 (disable tool length compensation)
G80 (cancel modal motion)
G54 (select coordinate system 1)
G90 (disable incremental moves)
G21 (metric)
G61 (exact path mode)
F6.00000
S1000.00000
;PYCAM_TOOLPATH_SETTINGS: START
;[Bounds]
;maxz = 0.0
;maxx = 108.415
;maxy = 108.40642
;minx = -8.415
;miny = -8.41422
;minz = -5.0
;
;[Tool]
;torus_radius = 0.25
;speed = 1000.0
;shape = CylindricalCutter
;tool_radius = 1.585
;feedrate = 6.0
;
;[Process]
;engrave_offset = 0.0
;step_down = 2.5
;generator = PushCutter
;postprocessor = ContourCutter
;milling_style = ignore
;material_allowance = 0.5
;pocketing_type = none
;path_direction = x
;
;PYCAM_TOOLPATH_SETTINGS: END
T1 M6
G0 Z25.0000
M3 (start spindle)
G04 P3 (wait for 3 seconds)
 X32.1818 Y1.0577
G1 Z0.0000
 X25.1681 Y4.2150
 X20.0688 Y7.3724
 X16.0150 Y10.5297
 X12.6617 Y13.6870
 X9.8329 Y16.8443
 X7.4233 Y20.0016
 X5.3659 Y23.1589
 X3.6121 Y26.3162
 X2.1302 Y29.4736
 X0.8992 Y32.6309
 X-0.1097 Y35.7882
 X-0.8952 Y38.9455
 X-1.4828 Y42.1028
 X-1.8655 Y45.2601
 X-2.0585 Y48.4174
 Y51.5748
 X-1.8655 Y54.7321
 X-1.4828 Y57.8894
 X-0.8952 Y61.0467
 X-0.1097 Y64.2040
 X0.8992 Y67.3613
 X2.1302 Y70.5186
 X3.6121 Y73.6760
 X5.3659 Y76.8333
 X7.4233 Y79.9906
 X9.8329 Y83.1479
 X12.6617 Y86.3052
 X16.0150 Y89.4625
 X20.0688 Y92.6198
 X25.1681 Y95.7772
 X32.1818 Y98.9345
 X67.8182
 X74.8319 Y95.7772
 X79.9312 Y92.6198
 X83.9850 Y89.4625
 X87.3383 Y86.3052
 X90.1671 Y83.1479
 X92.5767 Y79.9906
 X94.6341 Y76.8333
 X96.3879 Y73.6760
 X97.8698 Y70.5186
 X99.1008 Y67.3613
 X100.1097 Y64.2040
 X100.8952 Y61.0467
 X101.4828 Y57.8894
 X101.8655 Y54.7321
 X102.0585 Y51.5748
 Y48.4174
 X101.8655 Y45.2601
 X101.4828 Y42.1028
 X100.8952 Y38.9455
 X100.1097 Y35.7882
 X99.1008 Y32.6309
 X97.8698 Y29.4736
 X96.3879 Y26.3162
 X94.6341 Y23.1589
 X92.5767 Y20.0016
 X90.1671 Y16.8443
 X87.3383 Y13.6870
 X83.9850 Y10.5297
 X79.9312 Y7.3724
 X74.8319 Y4.2150
 X67.8182 Y1.0577
 X32.1818
G0 Z25.0000
 Y98.9345
G1 Z-2.5000
 X25.1681 Y95.7772
 X20.0688 Y92.6198
 X16.0150 Y89.4625
 X12.6617 Y86.3052
 X9.8329 Y83.1479
 X7.4233 Y79.9906
 X5.3659 Y76.8333
 X3.6121 Y73.6760
 X2.1302 Y70.5186
 X0.8992 Y67.3613
 X-0.1097 Y64.2040
 X-0.8952 Y61.0467
 X-1.4828 Y57.8894
 X-1.8655 Y54.7321
 X-2.0585 Y51.5748
 Y48.4174
 X-1.8655 Y45.2601
 X-1.4828 Y42.1028
 X-0.8952 Y38.9455
 X-0.1097 Y35.7882
 X0.8992 Y32.6309
 X2.1302 Y29.4736
 X3.6121 Y26.3162
 X5.3659 Y23.1589
 X7.4233 Y20.0016
 X9.8329 Y16.8443
 X12.6617 Y13.6870
 X16.0150 Y10.5297
 X20.0688 Y7.3724
 X25.1681 Y4.2150
 X32.1818 Y1.0577
 X67.8182
 X74.8319 Y4.2150
 X79.9312 Y7.3724
 X83.9850 Y10.5297
 X87.3383 Y13.6870
 X90.1671 Y16.8443
 X92.5767 Y20.0016
 X94.6341 Y23.1589
 X96.3879 Y26.3162
 X97.8698 Y29.4736
 X99.1008 Y32.6309
 X100.1097 Y35.7882
 X100.8952 Y38.9455
 X101.4828 Y42.1028
 X101.8655 Y45.2601
 X102.0585 Y48.4174
 Y51.5748
 X101.8655 Y54.7321
 X101.4828 Y57.8894
 X100.8952 Y61.0467
 X100.1097 Y64.2040
 X99.1008 Y67.3613
 X97.8698 Y70.5186
 X96.3879 Y73.6760
 X94.6341 Y76.8333
 X92.5767 Y79.9906
 X90.1671 Y83.1479
 X87.3383 Y86.3052
 X83.9850 Y89.4625
 X79.9312 Y92.6198
 X74.8319 Y95.7772
 X67.8182 Y98.9345
 X32.1818
G0 Z25.0000
 Y1.0577
G1 Z-5.0000
 X25.1681 Y4.2150
 X20.0688 Y7.3724
 X16.0150 Y10.5297
 X12.6617 Y13.6870
 X9.8329 Y16.8443
 X7.4233 Y20.0016
 X5.3659 Y23.1589
 X3.6121 Y26.3162
 X2.1302 Y29.4736
 X0.8992 Y32.6309
 X-0.1097 Y35.7882
 X-0.8952 Y38.9455
 X-1.4828 Y42.1028
 X-1.8655 Y45.2601
 X-2.0585 Y48.4174
 Y51.5748
 X-1.8655 Y54.7321
 X-1.4828 Y57.8894
 X-0.8952 Y61.0467
 X-0.1097 Y64.2040
 X0.8992 Y67.3613
 X2.1302 Y70.5186
 X3.6121 Y73.6760
 X5.3659 Y76.8333
 X7.4233 Y79.9906
 X9.8329 Y83.1479
 X12.6617 Y86.3052
 X16.0150 Y89.4625
 X20.0688 Y92.6198
 X25.1681 Y95.7772
 X32.1818 Y98.9345
 X67.8182
 X74.8319 Y95.7772
 X79.9312 Y92.6198
 X83.9850 Y89.4625
 X87.3383 Y86.3052
 X90.1671 Y83.1479
 X92.5767 Y79.9906
 X94.6341 Y76.8333
 X96.3879 Y73.6760
 X97.8698 Y70.5186
 X99.1008 Y67.3613
 X100.1097 Y64.2040
 X100.8952 Y61.0467
 X101.4828 Y57.8894
 X101.8655 Y54.7321
 X102.0585 Y51.5748
 Y48.4174
 X101.8655 Y45.2601
 X101.4828 Y42.1028
 X100.8952 Y38.9455
 X100.1097 Y35.7882
 X99.1008 Y32.6309
 X97.8698 Y29.4736
 X96.3879 Y26.3162
 X94.6341 Y23.1589
 X92.5767 Y20.0016
 X90.1671 Y16.8443
 X87.3383 Y13.6870
 X83.9850 Y10.5297
 X79.9312 Y7.3724
 X74.8319 Y4.2150
 X67.8182 Y1.0577
 X32.1818
G0 Z25.0000
M5 (stop spindle)
G04 P3 (wait for 3 seconds)
G0 Z25.0000
M2 (end program)
