;PYCAM-META-DATA: Filename: /home/crepp052/Bureau/files_svg_cnc/triskell_100mm.svg
;PYCAM-META-DATA: Timestamp: 2015-04-07 22:41:30.987037
;PYCAM-META-DATA: Version: 0.5.1
;Estimated machine time: 143 minutes
G40 (disable tool radius compensation)
G49 (disable tool length compensation)
G80 (cancel modal motion)
G54 (select coordinate system 1)
G90 (disable incremental moves)
G21 (metric)
G61 (exact path mode)
F6.00000
S1000.00000
;PYCAM_TOOLPATH_SETTINGS: START
;[Bounds]
;maxz = 0.0
;maxx = 108.414269471
;maxy = 101.651813307
;minx = -8.4141641766
;miny = -7.797146377
;minz = 0.0
;
;[Tool]
;torus_radius = 0.25
;speed = 1000.0
;shape = CylindricalCutter
;tool_radius = 1.585
;feedrate = 6.0
;
;[Process]
;engrave_offset = 0.0
;step_down = 3.0
;generator = EngraveCutter
;postprocessor = SimpleCutter
;milling_style = conventional
;material_allowance = 0.0
;pocketing_type = none
;path_direction = x
;
;PYCAM_TOOLPATH_SETTINGS: END
T1 M6
G0 Z25.0000
M3 (start spindle)
G04 P3 (wait for 3 seconds)
 X78.5315 Y25.9504
G1 Z0.0000
 X78.6250 Y26.1107
 X78.7436 Y26.2640
 X78.8794 Y26.4025
 X79.0250 Y26.5179
 X79.1960 Y26.6178
 X79.3860 Y26.6985
 X79.5842 Y26.7574
 X79.7800 Y26.7921
 X80.0000 Y26.8012
 X80.2289 Y26.7849
 X80.4551 Y26.7453
 X80.6676 Y26.6849
 X80.8979 Y26.5886
 X81.1258 Y26.4642
 X81.3417 Y26.3187
 X81.5357 Y26.1594
 X81.7358 Y25.9564
 X81.9222 Y25.7263
 X82.0881 Y25.4807
 X82.2261 Y25.2310
 X82.3550 Y24.9347
 X82.4608 Y24.6160
 X82.5406 Y24.2894
 X82.5912 Y23.9699
 X82.6154 Y23.6060
 X82.6085 Y23.2276
 X82.5722 Y22.8507
 X82.5087 Y22.4914
 X82.4033 Y22.0990
 X82.2619 Y21.7017
 X82.0915 Y21.3153
 X81.8994 Y20.9561
 X81.6543 Y20.5783
 X81.3703 Y20.2074
 X81.0604 Y19.8574
 X80.7378 Y19.5425
 X80.3561 Y19.2272
 X79.9365 Y18.9311
 X79.4972 Y18.6647
 X79.0568 Y18.4386
 X78.5575 Y18.2321
 X78.0256 Y18.0564
 X77.4828 Y17.9172
 X76.9511 Y17.8199
 X76.3683 Y17.7606
 X75.7611 Y17.7431
 X75.1539 Y17.7664
 X74.5712 Y17.8293
 X74.2636 Y17.8810
 X73.9499 Y17.9461
 X73.6329 Y18.0236
 X73.3158 Y18.1128
 X73.0018 Y18.2122
 X72.6942 Y18.3210
 X72.3958 Y18.4381
 X72.1099 Y18.5625
 X71.8086 Y18.7081
 X71.5049 Y18.8693
 X71.2017 Y19.0444
 X70.9017 Y19.2313
 X70.6081 Y19.4278
 X70.3236 Y19.6319
 X70.0511 Y19.8418
 X69.7936 Y20.0550
 X69.5271 Y20.2939
 X69.2626 Y20.5496
 X69.0026 Y20.8190
 X68.7494 Y21.0996
 X68.5056 Y21.3881
 X68.2733 Y21.6817
 X68.0550 Y21.9774
 X67.8533 Y22.2722
 X67.6506 Y22.5949
 X67.4546 Y22.9340
 X67.2672 Y23.2860
 X67.0900 Y23.6471
 X66.9243 Y24.0136
 X66.7721 Y24.3821
 X66.6347 Y24.7486
 X66.5138 Y25.1096
 X66.4006 Y25.4972
 X66.2992 Y25.8999
 X66.2099 Y26.3131
 X66.1333 Y26.7326
 X66.0701 Y27.1546
 X66.0210 Y27.5746
 X65.9862 Y27.9885
 X65.9667 Y28.3919
 X65.9629 Y28.8194
 X65.9751 Y29.2585
 X66.0028 Y29.7047
 X66.0451 Y30.1538
 X66.1017 Y30.6014
 X66.1719 Y31.0429
 X66.2553 Y31.4742
 X66.3511 Y31.8907
 X66.4685 Y32.3258
 X66.6056 Y32.7682
 X66.7603 Y33.2136
 X66.9308 Y33.6576
 X67.1154 Y34.0961
 X67.3122 Y34.5246
 X67.5193 Y34.9389
 X67.7347 Y35.3346
 X67.9771 Y35.7421
 X68.2414 Y36.1515
 X68.5243 Y36.5590
 X68.8228 Y36.9608
 X69.1337 Y37.3529
 X69.4542 Y37.7318
 X69.7807 Y38.0933
 X70.1104 Y38.4338
 X70.4703 Y38.7775
 X70.8525 Y39.1171
 X71.2531 Y39.4496
 X71.6678 Y39.7719
 X72.0922 Y40.0811
 X72.5225 Y40.3742
 X72.9543 Y40.6479
 X73.3835 Y40.8993
 X73.8428 Y41.1454
 X74.3236 Y41.3812
 X74.8208 Y41.6047
 X75.3293 Y41.8142
 X75.8440 Y42.0078
 X76.3600 Y42.1833
 X76.8721 Y42.3390
 X77.3754 Y42.4731
 X77.9065 Y42.5931
 X78.4565 Y42.6968
 X79.0196 Y42.7837
 X79.5903 Y42.8532
 X80.1626 Y42.9050
 X80.7314 Y42.9385
 X81.2907 Y42.9531
 X81.8349 Y42.9482
 X82.4025 Y42.9217
 X82.9843 Y42.8735
 X83.5747 Y42.8047
 X84.1679 Y42.7165
 X84.7579 Y42.6100
 X85.3393 Y42.4861
 X85.9060 Y42.3460
 X86.4524 Y42.1904
 X87.0151 Y42.0072
 X87.5863 Y41.7985
 X88.1601 Y41.5667
 X88.7314 Y41.3144
 X89.2946 Y41.0444
 X89.8442 Y40.7594
 X90.3744 Y40.4621
 X90.8801 Y40.1550
 X91.3936 Y39.8165
 X91.9086 Y39.4501
 X92.4203 Y39.0597
 X92.9239 Y38.6496
 X93.4144 Y38.2239
 X93.8874 Y37.7869
 X94.3376 Y37.3429
 X94.7607 Y36.8960
 X95.1817 Y36.4160
 X95.5967 Y35.9075
 X96.0019 Y35.3761
 X96.3936 Y34.8274
 X96.7683 Y34.2667
 X97.1222 Y33.6994
 X97.4515 Y33.1312
 X97.7526 Y32.5674
 X98.0425 Y31.9722
 X98.3183 Y31.3501
 X98.5782 Y30.7079
 X98.8199 Y30.0521
 X99.0410 Y29.3889
 X99.2396 Y28.7249
 X99.4136 Y28.0667
 X99.5606 Y27.4207
 X99.6881 Y26.7464
 X99.7944 Y26.0493
 X99.8790 Y25.3362
 X99.9417 Y24.6147
 X99.9819 Y23.8915
 X99.9994 Y23.1738
 X99.9936 Y22.4685
 X99.9642 Y21.7831
 X99.9076 Y21.0754
 X99.8239 Y20.3510
 X99.7143 Y19.6165
 X99.5806 Y18.8796
 X99.4239 Y18.1469
 X99.2461 Y17.4260
 X99.0485 Y16.7239
 X98.8328 Y16.0475
 X98.5837 Y15.3579
 X98.3031 Y14.6585
 X97.9940 Y13.9562
 X97.6603 Y13.2578
 X97.3051 Y12.5699
 X96.9321 Y11.8994
 X96.5443 Y11.2530
 X96.1457 Y10.6373
 X95.7110 Y10.0175
 X95.2419 Y9.3968
 X94.7440 Y8.7809
 X94.2225 Y8.1757
 X93.6822 Y7.5868
 X93.1289 Y7.0201
 X92.5675 Y6.4811
 X92.0033 Y5.9757
 X91.4031 Y5.4767
 X90.7683 Y4.9859
 X90.1061 Y4.5078
 X89.4231 Y4.0466
 X88.7263 Y3.6067
 X88.0224 Y3.1923
 X87.3182 Y2.8078
 X86.6207 Y2.4575
 X85.8886 Y2.1237
 X85.1247 Y1.8074
 X84.3369 Y1.5109
 X83.5333 Y1.2367
 X82.7217 Y0.9874
 X81.9099 Y0.7655
 X81.1058 Y0.5735
 X80.3176 Y0.4138
 X79.5003 Y0.2794
 X78.6558 Y0.1709
 X77.7932 Y0.0887
 X76.9207 Y0.0330
 X76.0468 Y0.0042
 X75.1801 Y0.0028
 X74.3293 Y0.0289
 X73.5031 Y0.0829
 X72.6557 Y0.1695
 X71.7886 Y0.2891
 X70.9101 Y0.4398
 X70.0292 Y0.6195
 X69.1540 Y0.8262
 X68.2935 Y1.0578
 X67.4560 Y1.3124
 X66.6503 Y1.5878
 X65.8325 Y1.9023
 X65.0042 Y2.2546
 X64.1729 Y2.6405
 X63.3471 Y3.0558
 X62.5343 Y3.4962
 X61.7428 Y3.9574
 X60.9803 Y4.4353
 X60.2547 Y4.9255
 X59.5287 Y5.4564
 X58.8025 Y6.0278
 X58.0825 Y6.6334
 X57.3756 Y7.2668
 X56.6885 Y7.9216
 X56.0278 Y8.5915
 X55.4003 Y9.2702
 X54.8128 Y9.9512
 X54.2360 Y10.6720
 X53.6696 Y11.4331
 X53.1186 Y12.2261
 X52.5879 Y13.0431
 X52.0826 Y13.8761
 X51.6076 Y14.7168
 X51.1678 Y15.5572
 X50.7682 Y16.3893
 X50.3903 Y17.2579
 X50.0333 Y18.1633
 X49.7003 Y19.0964
 X49.3939 Y20.0476
 X49.1168 Y21.0079
 X48.8718 Y21.9678
 X48.6615 Y22.9179
 X48.4889 Y23.8489
 X48.3333 Y24.5897
 X48.1474 Y25.3453
 X47.9331 Y26.1078
 X47.6929 Y26.8700
 X47.4294 Y27.6246
 X47.1450 Y28.3639
 X46.8418 Y29.0807
 X46.5225 Y29.7674
 X46.1888 Y30.4204
 X45.8228 Y31.0792
 X45.4288 Y31.7375
 X45.0106 Y32.3889
 X44.5725 Y33.0271
 X44.1186 Y33.6457
 X43.6528 Y34.2383
 X43.1793 Y34.7988
 X42.7018 Y35.3235
 X42.1926 Y35.8456
 X41.6574 Y36.3599
 X41.1013 Y36.8618
 X40.5300 Y37.3464
 X39.9490 Y37.8085
 X39.3636 Y38.2435
 X38.7794 Y38.6461
 X38.2001 Y39.0144
 X37.5922 Y39.3721
 X36.9619 Y39.7158
 X36.3156 Y40.0425
 X35.6594 Y40.3490
 X35.0000 Y40.6322
 X34.3433 Y40.8888
 X33.6960 Y41.1156
 X33.0631 Y41.3115
 X32.4060 Y41.4900
 X31.7314 Y41.6499
 X31.0463 Y41.7897
 X30.3572 Y41.9082
 X29.6708 Y42.0042
 X28.9942 Y42.0761
 X28.3338 Y42.1228
 X27.6951 Y42.1440
 X27.0385 Y42.1431
 X26.3704 Y42.1203
 X25.6974 Y42.0761
 X25.0261 Y42.0111
 X24.3633 Y41.9257
 X23.7153 Y41.8204
 X23.0890 Y41.6956
 X22.4907 Y41.5531
 X21.8812 Y41.3853
 X21.2667 Y41.1943
 X20.6529 Y40.9821
 X20.0460 Y40.7511
 X19.4519 Y40.5031
 X18.8767 Y40.2403
 X18.3264 Y39.9647
 X17.8076 Y39.6803
 X17.2850 Y39.3697
 X16.7636 Y39.0363
 X16.2483 Y38.6836
 X15.7444 Y38.3151
 X15.2568 Y37.9340
 X14.7907 Y37.5439
 X14.3510 Y37.1482
 X13.9429 Y36.7532
 X13.5380 Y36.3328
 X13.1398 Y35.8915
 X12.7523 Y35.4340
 X12.3793 Y34.9644
 X12.0245 Y34.4875
 X11.6919 Y34.0076
 X11.3852 Y33.5294
 X11.1089 Y33.0601
 X10.8419 Y32.5683
 X10.5865 Y32.0592
 X10.3452 Y31.5375
 X10.1202 Y31.0087
 X9.9141 Y30.4778
 X9.7291 Y29.9497
 X9.5677 Y29.4299
 X9.4319 Y28.9268
 X9.3105 Y28.4051
 X9.2043 Y27.8704
 X9.1143 Y27.3278
 X9.0413 Y26.7826
 X8.9863 Y26.2403
 X8.9501 Y25.7061
 X8.9337 Y25.1856
 X8.9371 Y24.6876
 X8.9584 Y24.1765
 X8.9970 Y23.6572
 X9.0524 Y23.1349
 X9.1242 Y22.6146
 X9.2118 Y22.1015
 X9.3148 Y21.6007
 X9.4326 Y21.1174
 X9.5626 Y20.6614
 X9.7124 Y20.1976
 X9.8804 Y19.7310
 X10.0647 Y19.2657
 X10.2634 Y18.8065
 X10.4749 Y18.3579
 X10.6974 Y17.9247
 X10.9290 Y17.5111
 X11.1639 Y17.1265
 X11.4191 Y16.7400
 X11.6918 Y16.3551
 X11.9792 Y15.9760
 X12.2784 Y15.6061
 X12.5868 Y15.2492
 X12.9015 Y14.9090
 X13.2196 Y14.5894
 X13.5326 Y14.2983
 X13.8645 Y14.0107
 X14.2118 Y13.7293
 X14.5711 Y13.4567
 X14.9387 Y13.1956
 X15.3114 Y12.9489
 X15.6853 Y12.7190
 X16.0571 Y12.5088
 X16.4164 Y12.3237
 X16.7922 Y12.1466
 X17.1807 Y11.9792
 X17.5778 Y11.8229
 X17.9796 Y11.6794
 X18.3822 Y11.5503
 X18.7817 Y11.4372
 X19.1742 Y11.3415
 X19.5472 Y11.2655
 X19.9333 Y11.2011
 X20.3283 Y11.1487
 X20.7285 Y11.1087
 X21.1296 Y11.0817
 X21.5278 Y11.0680
 X21.9190 Y11.0681
 X22.2994 Y11.0825
 X22.6563 Y11.1098
 X23.0218 Y11.1509
 X23.3924 Y11.2052
 X23.7642 Y11.2721
 X24.1335 Y11.3510
 X24.4968 Y11.4412
 X24.8503 Y11.5420
 X25.1904 Y11.6529
 X25.5042 Y11.7695
 X25.8221 Y11.9007
 X26.1411 Y12.0451
 X26.4579 Y12.2014
 X26.7694 Y12.3678
 X27.0726 Y12.5431
 X27.3640 Y12.7256
 X27.6408 Y12.9138
 X27.8917 Y13.0991
 X28.1424 Y13.2988
 X28.3904 Y13.5107
 X28.6336 Y13.7328
 X28.8692 Y13.9626
 X29.0949 Y14.1983
 X29.3082 Y14.4374
 X29.5067 Y14.6776
 X29.6815 Y14.9078
 X29.8525 Y15.1508
 X30.0179 Y15.4040
 X30.1762 Y15.6651
 X30.3258 Y15.9314
 X30.4650 Y16.2003
 X30.5919 Y16.4692
 X30.7054 Y16.7354
 X30.8867 Y17.2439
 X31.0376 Y17.7836
 X31.1517 Y18.3321
 X31.2222 Y18.8669
 X31.2465 Y19.3619
 X31.2351 Y19.8756
 X31.1883 Y20.3869
 X31.1065 Y20.8749
 X30.9950 Y21.3121
 X30.8467 Y21.7557
 X30.6674 Y22.1869
 X30.4631 Y22.5876
 X30.2481 Y22.9339
 X29.9987 Y23.2749
 X29.7253 Y23.5964
 X29.4375 Y23.8844
 X29.1583 Y24.1183
 X28.8504 Y24.3378
 X28.5267 Y24.5332
 X28.2004 Y24.6947
 X27.8974 Y24.8106
 X27.5746 Y24.9046
 X27.2456 Y24.9724
 X26.9240 Y25.0092
 X26.6386 Y25.0138
 X26.3432 Y24.9928
 X26.0508 Y24.9467
 X25.7746 Y24.8754
 X25.5404 Y24.7872
 X25.3065 Y24.6729
 X25.0844 Y24.5372
 X24.8860 Y24.3847
 X24.7276 Y24.2314
 X24.5803 Y24.0558
 X24.4517 Y23.8663
 X24.3497 Y23.6711
 X24.2815 Y23.4844
 X24.2335 Y23.2832
 X24.2086 Y23.0781
 X24.2093 Y22.8797
 X24.2364 Y22.6961
 X24.2886 Y22.5094
 X24.3624 Y22.3301
 X24.4546 Y22.1689
 X24.5468 Y22.0067
 X24.6207 Y21.8271
 X24.6729 Y21.6401
 X24.7001 Y21.4562
 X24.7004 Y21.2582
 X24.6751 Y21.0533
 X24.6269 Y20.8526
 X24.5593 Y20.6668
 X24.4576 Y20.4707
 X24.3290 Y20.2808
 X24.1817 Y20.1051
 X24.0235 Y19.9517
 X23.8247 Y19.7992
 X23.6026 Y19.6633
 X23.3686 Y19.5490
 X23.1344 Y19.4610
 X22.8583 Y19.3899
 X22.5660 Y19.3436
 X22.2706 Y19.3226
 X21.9851 Y19.3272
 X21.6635 Y19.3640
 X21.3343 Y19.4317
 X21.0114 Y19.5258
 X20.7090 Y19.6417
 X20.3825 Y19.8033
 X20.0587 Y19.9986
 X19.7508 Y20.2181
 X19.4715 Y20.4519
 X19.1839 Y20.7401
 X18.9104 Y21.0619
 X18.6612 Y21.4029
 X18.4464 Y21.7483
 X18.2414 Y22.1493
 X18.0622 Y22.5808
 X17.9142 Y23.0243
 X17.8029 Y23.4615
 X17.7206 Y23.9494
 X17.6738 Y24.4607
 X17.6626 Y24.9743
 X17.6872 Y25.4692
 X17.7575 Y26.0049
 X17.8715 Y26.5532
 X18.0225 Y27.0925
 X18.2040 Y27.6010
 X18.3172 Y27.8672
 X18.4443 Y28.1360
 X18.5835 Y28.4049
 X18.7331 Y28.6711
 X18.8914 Y28.9322
 X19.0569 Y29.1856
 X19.2279 Y29.4285
 X19.4028 Y29.6583
 X19.6013 Y29.8987
 X19.8144 Y30.1379
 X20.0401 Y30.3735
 X20.2757 Y30.6035
 X20.5189 Y30.8254
 X20.7669 Y31.0374
 X21.0176 Y31.2371
 X21.2686 Y31.4222
 X21.5451 Y31.6107
 X21.8367 Y31.7932
 X22.1397 Y31.9685
 X22.4513 Y32.1350
 X22.7681 Y32.2912
 X23.0871 Y32.4358
 X23.4050 Y32.5669
 X23.7186 Y32.6835
 X24.0587 Y32.7944
 X24.4125 Y32.8953
 X24.7758 Y32.9854
 X25.1451 Y33.0642
 X25.5168 Y33.1311
 X25.8874 Y33.1854
 X26.2529 Y33.2265
 X26.6100 Y33.2539
 X26.9903 Y33.2683
 X27.3817 Y33.2685
 X27.7797 Y33.2549
 X28.1808 Y33.2279
 X28.5808 Y33.1881
 X28.9760 Y33.1358
 X29.3621 Y33.0717
 X29.7353 Y32.9960
 X30.1278 Y32.9000
 X30.5271 Y32.7865
 X30.9297 Y32.6572
 X31.3314 Y32.5136
 X31.7282 Y32.3574
 X32.1165 Y32.1899
 X32.4921 Y32.0128
 X32.8510 Y31.8276
 X33.2232 Y31.6174
 X33.5975 Y31.3875
 X33.9703 Y31.1407
 X34.3381 Y30.8796
 X34.6975 Y30.6069
 X35.0449 Y30.3254
 X35.3768 Y30.0378
 X35.6899 Y29.7465
 X36.0079 Y29.4271
 X36.3224 Y29.0871
 X36.6308 Y28.7303
 X36.9300 Y28.3604
 X37.2174 Y27.9813
 X37.4901 Y27.5965
 X37.7453 Y27.2099
 X37.9800 Y26.8251
 X38.2117 Y26.4118
 X38.4342 Y25.9785
 X38.6457 Y25.5300
 X38.8446 Y25.0707
 X39.0289 Y24.6054
 X39.1968 Y24.1386
 X39.3467 Y23.6749
 X39.4765 Y23.2188
 X39.5940 Y22.7356
 X39.6968 Y22.2349
 X39.7844 Y21.7217
 X39.8562 Y21.2014
 X39.9118 Y20.6790
 X39.9506 Y20.1597
 X39.9719 Y19.6486
 X39.9754 Y19.1508
 X39.9590 Y18.6303
 X39.9229 Y18.0961
 X39.8681 Y17.5539
 X39.7951 Y17.0086
 X39.7051 Y16.4660
 X39.5989 Y15.9313
 X39.4775 Y15.4097
 X39.3418 Y14.9067
 X39.1803 Y14.3867
 X38.9953 Y13.8587
 X38.7890 Y13.3278
 X38.5640 Y12.7989
 X38.3226 Y12.2773
 X38.0672 Y11.7681
 X37.8001 Y11.2763
 X37.5239 Y10.8070
 X37.2172 Y10.3292
 X36.8846 Y9.8496
 X36.5299 Y9.3726
 X36.1569 Y8.9031
 X35.7694 Y8.4453
 X35.3714 Y8.0038
 X34.9665 Y7.5833
 X34.5585 Y7.1882
 X34.1188 Y6.7929
 X33.6525 Y6.4030
 X33.1650 Y6.0220
 X32.6610 Y5.6533
 X32.1458 Y5.3005
 X31.6243 Y4.9670
 X31.1015 Y4.6562
 X30.5826 Y4.3716
 X30.0324 Y4.0962
 X29.4572 Y3.8334
 X28.8632 Y3.5854
 X28.2562 Y3.3542
 X27.6425 Y3.1421
 X27.0279 Y2.9510
 X26.4183 Y2.7832
 X25.8201 Y2.6405
 X25.1937 Y2.5158
 X24.5458 Y2.4105
 X23.8831 Y2.3251
 X23.2118 Y2.2601
 X22.5388 Y2.2160
 X21.8706 Y2.1931
 X21.2140 Y2.1921
 X20.5754 Y2.2133
 X19.9146 Y2.2600
 X19.2376 Y2.3320
 X18.5514 Y2.4280
 X17.8624 Y2.5466
 X17.1775 Y2.6865
 X16.5032 Y2.8464
 X15.8464 Y3.0250
 X15.2136 Y3.2209
 X14.5660 Y3.4477
 X13.9093 Y3.7043
 X13.2498 Y3.9874
 X12.5937 Y4.2939
 X11.9474 Y4.6207
 X11.3171 Y4.9645
 X10.7092 Y5.3221
 X10.1300 Y5.6903
 X9.5456 Y6.0930
 X8.9602 Y6.5279
 X8.3791 Y6.9900
 X7.8077 Y7.4744
 X7.2515 Y7.9764
 X6.7160 Y8.4908
 X6.2064 Y9.0129
 X5.7284 Y9.5377
 X5.2555 Y10.0981
 X4.7901 Y10.6908
 X4.3364 Y11.3093
 X3.8985 Y11.9474
 X3.4805 Y12.5988
 X3.0864 Y13.2571
 X2.7205 Y13.9160
 X2.3869 Y14.5690
 X2.0675 Y15.2557
 X1.7644 Y15.9724
 X1.4799 Y16.7118
 X1.2164 Y17.4662
 X0.9763 Y18.2286
 X0.7619 Y18.9911
 X0.5757 Y19.7467
 X0.4201 Y20.4876
 X0.2885 Y21.2571
 X0.1810 Y22.0521
 X0.0983 Y22.8649
 X0.0404 Y23.6869
 X0.0078 Y24.5107
 X0.0007 Y25.3276
 X0.0196 Y26.1299
 X0.0649 Y26.9092
 X0.1419 Y27.7100
 X0.2501 Y28.5296
 X0.3873 Y29.3601
 X0.5519 Y30.1932
 X0.7419 Y31.0208
 X0.9557 Y31.8350
 X1.1913 Y32.6275
 X1.4471 Y33.3901
 X1.7391 Y34.1647
 X2.0672 Y34.9499
 X2.4272 Y35.7381
 X2.8152 Y36.5214
 X3.2271 Y37.2926
 X3.6590 Y38.0439
 X4.1069 Y38.7676
 X4.5667 Y39.4564
 X5.0655 Y40.1468
 X5.6029 Y40.8379
 X6.1727 Y41.5233
 X6.7689 Y42.1967
 X7.3856 Y42.8513
 X8.0166 Y43.4808
 X8.6559 Y44.0790
 X9.2975 Y44.6392
 X9.9785 Y45.1899
 X10.6976 Y45.7310
 X11.4473 Y46.2576
 X12.2197 Y46.7650
 X13.0074 Y47.2485
 X13.8027 Y47.7032
 X14.5979 Y48.1244
 X15.3857 Y48.5074
 X16.2083 Y48.8708
 X17.0663 Y49.2143
 X17.9507 Y49.5353
 X18.8526 Y49.8310
 X19.7633 Y50.0989
 X20.6740 Y50.3364
 X21.5756 Y50.5407
 X22.4593 Y50.7093
 X23.3718 Y50.8483
 X24.3139 Y50.9581
 X25.2763 Y51.0386
 X26.2492 Y51.0894
 X27.2233 Y51.1104
 X28.1892 Y51.1014
 X29.1371 Y51.0619
 X30.0578 Y50.9919
 X30.9983 Y50.8850
 X31.9604 Y50.7413
 X32.9347 Y50.5631
 X33.9117 Y50.3528
 X34.8818 Y50.1126
 X35.8356 Y49.8450
 X36.7636 Y49.5521
 X37.6563 Y49.2361
 X38.3760 Y49.0003
 X39.1235 Y48.7837
 X39.8912 Y48.5879
 X40.6714 Y48.4147
 X41.4565 Y48.2656
 X42.2389 Y48.1422
 X43.0111 Y48.0464
 X43.7653 Y47.9796
 X44.4976 Y47.9421
 X45.2511 Y47.9297
 X46.0182 Y47.9419
 X46.7914 Y47.9785
 X47.5632 Y48.0388
 X48.3258 Y48.1224
 X49.0719 Y48.2292
 X49.7939 Y48.3583
 X50.4871 Y48.5099
 X51.1937 Y48.6900
 X51.9069 Y48.8965
 X52.6197 Y49.1272
 X53.3250 Y49.3797
 X54.0160 Y49.6521
 X54.6856 Y49.9417
 X55.3268 Y50.2465
 X55.9350 Y50.5638
 X56.5483 Y50.9113
 X57.1611 Y51.2851
 X57.7671 Y51.6815
 X58.3606 Y52.0964
 X58.9356 Y52.5260
 X59.4864 Y52.9661
 X60.0068 Y53.4131
 X60.4926 Y53.8636
 X60.9756 Y54.3435
 X61.4513 Y54.8478
 X61.9150 Y55.3711
 X62.3622 Y55.9085
 X62.7886 Y56.4549
 X63.1896 Y57.0053
 X63.5607 Y57.5543
 X63.8981 Y58.0967
 X64.2254 Y58.6658
 X64.5397 Y59.2558
 X64.8379 Y59.8607
 X65.1172 Y60.4744
 X65.3747 Y61.0912
 X65.6074 Y61.7050
 X65.8125 Y62.3097
 X65.9881 Y62.8992
 X66.1474 Y63.5108
 X66.2892 Y64.1386
 X66.4125 Y64.7763
 X66.5157 Y65.4174
 X66.5979 Y66.0558
 X66.6579 Y66.6854
 X66.6944 Y67.2997
 X66.7075 Y67.8908
 X66.6999 Y68.4986
 X66.6718 Y69.1169
 X66.6240 Y69.7396
 X66.5568 Y70.3604
 X66.4707 Y70.9735
 X66.3661 Y71.5726
 X66.2436 Y72.1515
 X66.1051 Y72.7026
 X65.9433 Y73.2636
 X65.7601 Y73.8290
 X65.5575 Y74.3933
 X65.3374 Y74.9510
 X65.1017 Y75.4964
 X64.8524 Y76.0240
 X64.5915 Y76.5285
 X64.3235 Y77.0024
 X64.0311 Y77.4794
 X63.7179 Y77.9553
 X63.3868 Y78.4251
 X63.0411 Y78.8844
 X62.6843 Y79.3285
 X62.3193 Y79.7528
 X61.9496 Y80.1525
 X61.5821 Y80.5215
 X61.1913 Y80.8875
 X60.7813 Y81.2467
 X60.3564 Y81.5958
 X59.9207 Y81.9315
 X59.4785 Y82.2503
 X59.0340 Y82.5486
 X58.5915 Y82.8231
 X58.1589 Y83.0689
 X57.7058 Y83.3061
 X57.2368 Y83.5322
 X56.7567 Y83.7453
 X56.2703 Y83.9432
 X55.7821 Y84.1238
 X55.2971 Y84.2850
 X54.8199 Y84.4246
 X54.3597 Y84.5406
 X53.8832 Y84.6429
 X53.3947 Y84.7311
 X52.8996 Y84.8043
 X52.4024 Y84.8618
 X51.9081 Y84.9029
 X51.4214 Y84.9269
 X50.9475 Y84.9331
 X50.4971 Y84.9219
 X50.0349 Y84.8942
 X49.5653 Y84.8503
 X49.0933 Y84.7910
 X48.6233 Y84.7167
 X48.1600 Y84.6279
 X47.7081 Y84.5254
 X47.2722 Y84.4094
 X46.8639 Y84.2844
 X46.4490 Y84.1411
 X46.0317 Y83.9812
 X45.6158 Y83.8064
 X45.2060 Y83.6185
 X44.8058 Y83.4192
 X44.4197 Y83.2100
 X44.0517 Y82.9928
 X43.7115 Y82.7744
 X43.3700 Y82.5376
 X43.0307 Y82.2851
 X42.6969 Y82.0193
 X42.3717 Y81.7431
 X42.0586 Y81.4590
 X41.7608 Y81.1696
 X41.4817 Y80.8775
 X41.2294 Y80.5925
 X40.9807 Y80.2904
 X40.7379 Y79.9744
 X40.5033 Y79.6478
 X40.2793 Y79.3140
 X40.0683 Y78.9760
 X39.8725 Y78.6371
 X39.6946 Y78.3004
 X39.5397 Y77.9779
 X39.3925 Y77.6408
 X39.2544 Y77.2929
 X39.1265 Y76.9374
 X39.0104 Y76.5781
 X38.9071 Y76.2182
 X38.8182 Y75.8615
 X38.7449 Y75.5114
 X38.6431 Y74.8407
 X38.5853 Y74.1393
 X38.5736 Y73.4357
 X38.6097 Y72.7579
 X38.6451 Y72.4485
 X38.6929 Y72.1317
 X38.7525 Y71.8110
 X38.8232 Y71.4893
 X38.9044 Y71.1704
 X38.9957 Y70.8571
 X39.0961 Y70.5529
 X39.2053 Y70.2610
 X39.3171 Y69.9944
 X39.4421 Y69.7249
 X39.5786 Y69.4549
 X39.7256 Y69.1872
 X39.8812 Y68.9246
 X40.0444 Y68.6697
 X40.2136 Y68.4253
 X40.3874 Y68.1940
 X40.5561 Y67.9881
 X40.7372 Y67.7826
 X40.9289 Y67.5800
 X41.1292 Y67.3821
 X41.3360 Y67.1913
 X41.5475 Y67.0094
 X41.7615 Y66.8386
 X41.9764 Y66.6810
 X42.3924 Y66.4125
 X42.8426 Y66.1654
 X43.3086 Y65.9501
 X43.7719 Y65.7768
 X44.2058 Y65.6544
 X44.6642 Y65.5611
 X45.1276 Y65.5008
 X45.5771 Y65.4776
 X45.9844 Y65.4904
 X46.4044 Y65.5357
 X46.8197 Y65.6119
 X47.2129 Y65.7175
 X47.5549 Y65.8425
 X47.8989 Y65.9994
 X48.2299 Y66.1824
 X48.5331 Y66.3847
 X48.7846 Y66.5882
 X49.0278 Y66.8203
 X49.2513 Y67.0711
 X49.4439 Y67.3311
 X49.5904 Y67.5763
 X49.7199 Y67.8429
 X49.8261 Y68.1193
 X49.9029 Y68.3938
 X49.9436 Y68.6408
 X49.9617 Y68.9007
 X49.9551 Y69.1608
 X49.9224 Y69.4094
 X49.8690 Y69.6231
 X49.7906 Y69.8388
 X49.6904 Y70.0450
 X49.5724 Y70.2307
 X49.4446 Y70.3824
 X49.2944 Y70.5243
 X49.1293 Y70.6486
 X48.9575 Y70.7475
 X48.7843 Y70.8158
 X48.5962 Y70.8640
 X48.4039 Y70.8899
 X48.2176 Y70.8907
 X48.0319 Y70.8917
 X47.8400 Y70.9175
 X47.6521 Y70.9658
 X47.4789 Y71.0339
 X47.3071 Y71.1329
 X47.1421 Y71.2572
 X46.9919 Y71.3992
 X46.8644 Y71.5507
 X46.7460 Y71.7365
 X46.6457 Y71.9429
 X46.5669 Y72.1585
 X46.5131 Y72.3721
 X46.4810 Y72.6208
 X46.4747 Y72.8810
 X46.4928 Y73.1407
 X46.5335 Y73.3876
 X46.6097 Y73.6624
 X46.7160 Y73.9387
 X46.8457 Y74.2051
 X46.9925 Y74.4501
 X47.1851 Y74.7103
 X47.4086 Y74.9614
 X47.6517 Y75.1936
 X47.9033 Y75.3971
 X48.2063 Y75.5993
 X48.5371 Y75.7822
 X48.8810 Y75.9392
 X49.2235 Y76.0637
 X49.6165 Y76.1696
 X50.0321 Y76.2460
 X50.4521 Y76.2917
 X50.8593 Y76.3051
 X51.3086 Y76.2813
 X51.7719 Y76.2206
 X52.2299 Y76.1269
 X52.6631 Y76.0046
 X53.1272 Y75.8321
 X53.5936 Y75.6168
 X54.0440 Y75.3696
 X54.4600 Y75.1007
 X54.6749 Y74.9431
 X54.8889 Y74.7722
 X55.1003 Y74.5903
 X55.3071 Y74.3994
 X55.5074 Y74.2017
 X55.6990 Y73.9990
 X55.8803 Y73.7936
 X56.0490 Y73.5876
 X56.2228 Y73.3564
 X56.3921 Y73.1118
 X56.5553 Y72.8569
 X56.7110 Y72.5943
 X56.8578 Y72.3267
 X56.9944 Y72.0565
 X57.1193 Y71.7869
 X57.2311 Y71.5204
 X57.3403 Y71.2285
 X57.4407 Y70.9243
 X57.5318 Y70.6111
 X57.6131 Y70.2922
 X57.6838 Y69.9707
 X57.7433 Y69.6499
 X57.7911 Y69.3331
 X57.8267 Y69.0235
 X57.8628 Y68.3460
 X57.8510 Y67.6424
 X57.7932 Y66.9410
 X57.6915 Y66.2703
 X57.6182 Y65.9201
 X57.5293 Y65.5633
 X57.4260 Y65.2035
 X57.3099 Y64.8440
 X57.1821 Y64.4886
 X57.0439 Y64.1406
 X56.8968 Y63.8036
 X56.7422 Y63.4810
 X56.5640 Y63.1444
 X56.3682 Y62.8056
 X56.1571 Y62.4676
 X55.9331 Y62.1337
 X55.6985 Y61.8072
 X55.4556 Y61.4914
 X55.2068 Y61.1893
 X54.9546 Y60.9043
 X54.6756 Y60.6122
 X54.3778 Y60.3228
 X54.0646 Y60.0386
 X53.7394 Y59.7624
 X53.4056 Y59.4967
 X53.0663 Y59.2440
 X52.7249 Y59.0074
 X52.3847 Y58.7890
 X52.0167 Y58.5718
 X51.6304 Y58.3626
 X51.2303 Y58.1632
 X50.8203 Y57.9751
 X50.4043 Y57.8004
 X49.9867 Y57.6406
 X49.5715 Y57.4972
 X49.1628 Y57.3722
 X48.7274 Y57.2563
 X48.2758 Y57.1536
 X47.8128 Y57.0649
 X47.3431 Y56.9906
 X46.8710 Y56.9312
 X46.4015 Y56.8874
 X45.9393 Y56.8597
 X45.4889 Y56.8488
 X45.0149 Y56.8549
 X44.5283 Y56.8789
 X44.0340 Y56.9201
 X43.5368 Y56.9778
 X43.0417 Y57.0511
 X42.5533 Y57.1393
 X42.0768 Y57.2415
 X41.6168 Y57.3571
 X41.1394 Y57.4968
 X40.6543 Y57.6579
 X40.1661 Y57.8385
 X39.6797 Y58.0362
 X39.1996 Y58.2493
 X38.7307 Y58.4754
 X38.2775 Y58.7125
 X37.8450 Y58.9583
 X37.4024 Y59.2329
 X36.9578 Y59.5313
 X36.5157 Y59.8500
 X36.0801 Y60.1857
 X35.6553 Y60.5349
 X35.2453 Y60.8940
 X34.8544 Y61.2599
 X34.4868 Y61.6289
 X34.1171 Y62.0286
 X33.7521 Y62.4529
 X33.3951 Y62.8971
 X33.0496 Y63.3562
 X32.7186 Y63.8263
 X32.4053 Y64.3021
 X32.1131 Y64.7793
 X31.8453 Y65.2533
 X31.5843 Y65.7578
 X31.3349 Y66.2857
 X31.0992 Y66.8313
 X30.8789 Y67.3889
 X30.6762 Y67.9533
 X30.4931 Y68.5186
 X30.3313 Y69.0793
 X30.1928 Y69.6299
 X30.0704 Y70.2089
 X29.9658 Y70.8079
 X29.8797 Y71.4210
 X29.8125 Y72.0419
 X29.7646 Y72.6646
 X29.7367 Y73.2829
 X29.7292 Y73.8908
 X29.7424 Y74.4819
 X29.7788 Y75.0963
 X29.8386 Y75.7257
 X29.9207 Y76.3642
 X30.0240 Y77.0053
 X30.1472 Y77.6429
 X30.2892 Y78.2706
 X30.4485 Y78.8824
 X30.6243 Y79.4717
 X30.8292 Y80.0767
 X31.0618 Y80.6904
 X31.3192 Y81.3072
 X31.5985 Y81.9210
 X31.8967 Y82.5258
 X32.2110 Y83.1158
 X32.5382 Y83.6850
 X32.8757 Y84.2275
 X33.2468 Y84.7765
 X33.6478 Y85.3268
 X34.0742 Y85.8732
 X34.5215 Y86.4107
 X34.9854 Y86.9340
 X35.4611 Y87.4381
 X35.9440 Y87.9179
 X36.4300 Y88.3683
 X36.9503 Y88.8154
 X37.5010 Y89.2557
 X38.0760 Y89.6853
 X38.6694 Y90.1001
 X39.2754 Y90.4965
 X39.8881 Y90.8704
 X40.5014 Y91.2181
 X41.1096 Y91.5353
 X41.7508 Y91.8400
 X42.4204 Y92.1296
 X43.1113 Y92.4018
 X43.8167 Y92.6543
 X44.5293 Y92.8849
 X45.2425 Y93.0914
 X45.9492 Y93.2715
 X46.6425 Y93.4229
 X47.3644 Y93.5524
 X48.1106 Y93.6592
 X48.8732 Y93.7429
 X49.6450 Y93.8032
 X50.4182 Y93.8397
 X51.1854 Y93.8519
 X51.9390 Y93.8396
 X52.6715 Y93.8022
 X53.4256 Y93.7354
 X54.1976 Y93.6394
 X54.9800 Y93.5161
 X55.7651 Y93.3671
 X56.5453 Y93.1938
 X57.3131 Y92.9979
 X58.0604 Y92.7813
 X58.7801 Y92.5453
 X59.5126 Y92.2749
 X60.2549 Y91.9706
 X61.0000 Y91.6360
 X61.7408 Y91.2750
 X62.4703 Y90.8912
 X63.1810 Y90.4887
 X63.8661 Y90.0710
 X64.5185 Y89.6418
 X65.1735 Y89.1753
 X65.8293 Y88.6722
 X66.4799 Y88.1383
 X67.1190 Y87.5794
 X67.7408 Y87.0010
 X68.3390 Y86.4088
 X68.9078 Y85.8085
 X69.4407 Y85.2057
 X69.9654 Y84.5651
 X70.4811 Y83.8882
 X70.9833 Y83.1822
 X71.4676 Y82.4544
 X71.9294 Y81.7122
 X72.3640 Y80.9625
 X72.7671 Y80.2131
 X73.1340 Y79.4706
 X73.4825 Y78.6929
 X73.8124 Y77.8818
 X74.1210 Y77.0456
 X74.4058 Y76.1926
 X74.6643 Y75.3314
 X74.8939 Y74.4703
 X75.0919 Y73.6175
 X75.2560 Y72.7815
 X75.3928 Y71.9168
 X75.5021 Y71.0236
 X75.5836 Y70.1111
 X75.6369 Y69.1883
 X75.6619 Y68.2644
 X75.6582 Y67.3482
 X75.6254 Y66.4490
 X75.5632 Y65.5757
 X75.4665 Y64.6814
 X75.3350 Y63.7664
 X75.1707 Y62.8399
 X74.9757 Y61.9108
 X74.7522 Y60.9882
 X74.5025 Y60.0810
 X74.2288 Y59.1983
 X73.9331 Y58.3490
 X73.5972 Y57.4892
 X73.2214 Y56.6181
 X72.8100 Y55.7443
 X72.3675 Y54.8761
 X71.8986 Y54.0219
 X71.4079 Y53.1903
 X70.8999 Y52.3892
 X70.3792 Y51.6272
 X69.8161 Y50.8656
 X69.2104 Y50.1037
 X68.5689 Y49.3489
 X67.8982 Y48.6078
 X67.2051 Y47.8878
 X66.4963 Y47.1957
 X65.7786 Y46.5386
 X65.0586 Y45.9236
 X64.4947 Y45.4185
 X63.9336 Y44.8796
 X63.3803 Y44.3128
 X62.8400 Y43.7239
 X62.3182 Y43.1185
 X61.8201 Y42.5025
 X61.3510 Y41.8815
 X60.9163 Y41.2617
 X60.5175 Y40.6460
 X60.1299 Y39.9996
 X59.7567 Y39.3290
 X59.4017 Y38.6411
 X59.0679 Y37.9428
 X58.7592 Y37.2406
 X58.4788 Y36.5411
 X58.2301 Y35.8514
 X58.0146 Y35.1751
 X57.8171 Y34.4729
 X57.6393 Y33.7519
 X57.4828 Y33.0194
 X57.3489 Y32.2824
 X57.2393 Y31.5481
 X57.1554 Y30.8235
 X57.0989 Y30.1160
 X57.0694 Y29.4304
 X57.0637 Y28.7253
 X57.0811 Y28.0075
 X57.1214 Y27.2843
 X57.1839 Y26.5628
 X57.2683 Y25.8499
 X57.3743 Y25.1528
 X57.5014 Y24.4786
 X57.6483 Y23.8329
 X57.8225 Y23.1749
 X58.0214 Y22.5110
 X58.2428 Y21.8476
 X58.4847 Y21.1915
 X58.7447 Y20.5492
 X59.0208 Y19.9269
 X59.3108 Y19.3315
 X59.6118 Y18.7682
 X59.9410 Y18.2001
 X60.2946 Y17.6329
 X60.6690 Y17.0721
 X61.0607 Y16.5232
 X61.4660 Y15.9917
 X61.8810 Y15.4831
 X62.3024 Y15.0029
 X62.7254 Y14.5561
 X63.1758 Y14.1121
 X63.6487 Y13.6753
 X64.1394 Y13.2499
 X64.6429 Y12.8399
 X65.1544 Y12.4494
 X65.6694 Y12.0828
 X66.1829 Y11.7440
 X66.6885 Y11.4370
 X67.2189 Y11.1397
 X67.7683 Y10.8548
 X68.3317 Y10.5848
 X68.9029 Y10.3327
 X69.4769 Y10.1009
 X70.0479 Y9.8920
 X70.6106 Y9.7088
 X71.1565 Y9.5533
 X71.7231 Y9.4130
 X72.3043 Y9.2890
 X72.8944 Y9.1824
 X73.4876 Y9.0942
 X74.0779 Y9.0255
 X74.6597 Y8.9773
 X75.2271 Y8.9507
 X75.7717 Y8.9461
 X76.3311 Y8.9607
 X76.8999 Y8.9941
 X77.4722 Y9.0458
 X78.0426 Y9.1154
 X78.6056 Y9.2023
 X79.1554 Y9.3061
 X79.6865 Y9.4262
 X80.1903 Y9.5602
 X80.7026 Y9.7159
 X81.2189 Y9.8914
 X81.7338 Y10.0849
 X82.2421 Y10.2944
 X82.7390 Y10.5180
 X83.2196 Y10.7538
 X83.6786 Y10.9999
 X84.1081 Y11.2518
 X84.5401 Y11.5258
 X84.9706 Y11.8190
 X85.3951 Y12.1283
 X85.8096 Y12.4507
 X86.2100 Y12.7832
 X86.5921 Y13.1229
 X86.9517 Y13.4666
 X87.2817 Y13.8066
 X87.6083 Y14.1678
 X87.9288 Y14.5464
 X88.2396 Y14.9385
 X88.5381 Y15.3401
 X88.8207 Y15.7476
 X89.0849 Y16.1569
 X89.3272 Y16.5643
 X89.5426 Y16.9606
 X89.7497 Y17.3751
 X89.9465 Y17.8039
 X90.1313 Y18.2424
 X90.3019 Y18.6864
 X90.4569 Y19.1315
 X90.5943 Y19.5736
 X90.7122 Y20.0082
 X90.8079 Y20.4247
 X90.8911 Y20.8561
 X90.9613 Y21.2979
 X91.0178 Y21.7457
 X91.0600 Y22.1949
 X91.0875 Y22.6411
 X91.0994 Y23.0800
 X91.0953 Y23.5069
 X91.0761 Y23.9110
 X91.0415 Y24.3249
 X90.9924 Y24.7450
 X90.9292 Y25.1668
 X90.8525 Y25.5864
 X90.7631 Y25.9994
 X90.6614 Y26.4019
 X90.5482 Y26.7896
 X90.4272 Y27.1511
 X90.2899 Y27.5178
 X90.1376 Y27.8861
 X89.9721 Y28.2526
 X89.7950 Y28.6135
 X89.6079 Y28.9651
 X89.4124 Y29.3042
 X89.2100 Y29.6267
 X89.0079 Y29.9219
 X88.7894 Y30.2179
 X88.5572 Y30.5115
 X88.3133 Y30.8000
 X88.0603 Y31.0804
 X87.8006 Y31.3497
 X87.5362 Y31.6054
 X87.2699 Y31.8442
 X87.0122 Y32.0575
 X86.7396 Y32.2672
 X86.4549 Y32.4714
 X86.1610 Y32.6679
 X85.8607 Y32.8546
 X85.5572 Y33.0297
 X85.2535 Y33.1910
 X84.9521 Y33.3364
 X84.6663 Y33.4608
 X84.3681 Y33.5779
 X84.0606 Y33.6868
 X83.7468 Y33.7863
 X83.4300 Y33.8753
 X83.1132 Y33.9529
 X82.7996 Y34.0179
 X82.4921 Y34.0694
 X81.9094 Y34.1326
 X81.3022 Y34.1561
 X80.6950 Y34.1386
 X80.1124 Y34.0793
 X79.5806 Y33.9821
 X79.0376 Y33.8428
 X78.5057 Y33.6672
 X78.0065 Y33.4606
 X77.5654 Y33.2344
 X77.1262 Y32.9681
 X76.7068 Y32.6721
 X76.3253 Y32.3568
 X76.0028 Y32.0419
 X75.6928 Y31.6922
 X75.4086 Y31.3211
 X75.1635 Y30.9428
 X74.9714 Y30.5840
 X74.8006 Y30.1979
 X74.6586 Y29.8006
 X74.5532 Y29.4075
 X74.4906 Y29.0483
 X74.4546 Y28.6717
 X74.4472 Y28.2936
 X74.4707 Y27.9304
 X74.5218 Y27.6104
 X74.6014 Y27.2838
 X74.7069 Y26.9650
 X74.8358 Y26.6682
 X74.9747 Y26.4183
 X75.1408 Y26.1728
 X75.3274 Y25.9426
 X75.5276 Y25.7393
 X75.7210 Y25.5804
 X75.9368 Y25.4350
 X76.1650 Y25.3106
 X76.3958 Y25.2144
 X76.6079 Y25.1537
 X76.8343 Y25.1143
 X77.0631 Y25.0982
 X77.2831 Y25.1082
 X77.4782 Y25.1424
 X77.6760 Y25.2013
 X77.8658 Y25.2818
 X78.0369 Y25.3810
 X78.1832 Y25.4965
 X78.3194 Y25.6351
 X78.4379 Y25.7890
 X78.5315 Y25.9504
G0 Z25.0000
M5 (stop spindle)
G04 P3 (wait for 3 seconds)
G0 Z25.0000
M2 (end program)
